img/hero__logo.svg

<svg width="414" height="93" viewBox="0 0 414 93" fill="none" xmlns="http://www.w3.org/2000/svg">
<path d="M33.9003 25.653C33.3211 26.6459 32.4936 27.4733 31.5007 28.0525C30.5078 28.6317 29.4321 29.0455 28.1909 29.2937C26.9498 29.5419 25.7086 29.7074 24.3847 29.7074H14.7037L14.6209 13.9861H22.0679C23.4745 13.9861 24.8812 14.0688 26.3706 14.2343C27.86 14.3998 29.1839 14.7308 30.425 15.31C31.6662 15.8892 32.6591 16.6339 33.4865 17.7095C34.314 18.7852 34.645 20.1091 34.645 21.764C34.8104 23.3361 34.4795 24.5773 33.9003 25.653ZM49.8698 21.764C49.8698 17.875 49.2079 14.5653 47.884 12.0002C46.5601 9.43515 44.7397 7.36656 42.4229 5.79442C40.1888 4.30503 37.4582 3.22936 34.4795 2.56741C31.4179 1.90546 28.1909 1.65723 24.7984 1.65723H0.140747L0.223491 67.8523H14.7864L14.7037 42.0363H25.3776C28.8529 42.0363 32.0799 41.7053 35.1414 41.0433C38.1202 40.3814 40.6853 39.3057 42.9193 37.7336C45.0707 36.1614 46.8083 34.0928 48.0495 31.445C49.2079 28.88 49.8698 25.653 49.8698 21.764Z" fill="white"/>
<path d="M87.5992 54.6955C87.02 55.7712 86.1925 56.5986 85.1996 57.3433C84.2067 58.0053 83.0483 58.5845 81.8071 58.9154C80.4832 59.3292 79.1593 59.4946 77.8354 59.4946C77.0907 59.4946 76.346 59.4119 75.5186 59.2464C74.6911 59.0809 74.0292 58.7499 73.3672 58.3362C72.788 57.9225 72.2088 57.426 71.8778 56.7641C71.4641 56.1849 71.2986 55.4402 71.2986 54.53C71.2986 52.9579 71.7951 51.7167 72.788 50.8893C73.781 49.9791 75.1049 49.3999 76.5115 48.9034C78.0009 48.4897 79.4903 48.2415 81.0624 48.076C82.6346 47.9932 83.9585 47.9105 85.0341 47.9105H88.5094L88.5921 50.8893C88.5094 52.3787 88.1784 53.6198 87.5992 54.6955ZM101.335 45.6764L91.5709 23.1701C91.3227 23.0046 90.9917 22.9218 90.7435 22.7563C88.0957 21.7634 84.7032 21.1842 80.566 21.1842C76.8425 21.1842 73.2017 21.7634 69.7265 23.0046C66.2513 24.2457 63.1897 26.0661 60.6247 28.4657L68.0716 36.1609C69.561 34.506 71.2986 33.1821 73.2018 32.1892C75.1049 31.1962 77.1735 30.7825 79.4903 30.7825C81.8899 30.7825 84.0412 31.5272 85.7788 33.0166C87.5164 34.506 88.4266 36.4918 88.5094 38.9742C85.6133 38.9742 82.3036 39.0569 78.7456 39.2224C75.1876 39.3879 71.8778 40.0498 68.7336 41.0427C65.5893 42.0357 63.0243 43.6906 60.8729 45.8419C60.3764 46.3384 59.88 46.9176 59.549 47.5795V2.3186H45.4825V5.54562C47.2202 7.03501 48.7096 8.93812 49.9507 11.1722C51.4401 14.0682 52.1848 17.6262 52.1848 22.0117C52.1848 26.3143 51.4401 29.8723 50.1162 32.7684C48.9578 35.1679 47.4684 37.1538 45.5653 38.7259V67.9345H59.549V61.977C60.3764 63.3009 61.3694 64.542 62.6105 65.535C64.0999 66.6934 65.8375 67.6035 67.8234 68.1828C69.8093 68.762 71.7951 69.0929 73.9464 69.0929C76.8425 69.0929 79.573 68.5965 82.1381 67.5208C84.7032 66.4451 86.7718 64.7075 88.3439 62.3079H88.5094L88.5921 68.0173H101.5L101.335 45.6764Z" fill="white"/>
<path d="M140.642 2.3186V20.274H145.938L145.028 22.5081H130.713L120.701 52.5441H120.536L108.869 22.5081H93.7267L113.585 68.3482L112.592 70.996C112.096 72.2372 110.524 75.547 110.11 76.5399C109.696 77.4501 109.117 78.2775 108.455 78.9395C107.793 79.6014 106.966 80.0979 105.973 80.4288C104.98 80.7598 103.656 80.9253 102.084 80.9253C99.8497 80.9253 97.6984 80.4288 95.6298 79.5187L93.8094 91.0201C97.1192 92.1785 100.594 92.6749 104.235 92.6749C107.628 92.6749 110.275 92.344 112.344 91.682C114.413 91.0201 116.068 90.0271 117.474 88.786C118.798 87.5448 119.956 85.9727 120.784 84.0696C121.611 82.1665 122.522 80.0151 123.432 77.6156L140.642 33.844V67.9345H154.626V2.40135H140.642V2.3186Z" fill="white"/>
<path d="M190.782 50.8894C192.52 51.3031 194.009 51.7996 195.168 52.3788C196.326 52.958 196.905 53.8682 196.905 55.0266C196.905 56.2677 196.243 57.0952 194.919 57.5916C193.596 58.0881 192.189 58.2536 190.534 58.2536C188.383 58.2536 186.562 57.8399 184.99 57.0124C183.418 56.185 181.929 54.9438 180.605 53.289L172.165 62.8045C171.668 62.3081 171.172 61.8116 170.676 61.3151L173.903 57.6744V41.2911C174.151 42.1185 174.482 42.8632 174.978 43.4424C176.137 45.1801 177.626 46.504 179.446 47.4142C181.267 48.3243 183.17 49.069 185.156 49.4827C187.142 50.062 189.045 50.4757 190.782 50.8894ZM240.263 56.9297C239.105 57.0952 238.112 57.1779 237.367 57.1779C235.878 57.1779 234.637 57.0124 233.809 56.5987C232.899 56.185 232.237 55.6058 231.823 54.8611C231.41 54.1164 231.079 53.2062 230.913 52.2133C230.748 51.2204 230.665 50.062 230.748 48.8208V33.6787H243.076V22.4255H230.748V8.93823H216.764V22.4255H207.828V25.9835C206.007 24.4113 203.856 23.3357 201.456 22.591C198.395 21.6808 195.416 21.2671 192.354 21.2671C189.955 21.2671 187.638 21.5981 185.404 22.1773C183.087 22.7565 181.101 23.6666 179.281 24.9078C177.461 26.149 176.054 27.7211 174.978 29.707C174.564 30.4517 174.234 31.1963 173.985 32.0238V22.4255H159.836V67.8519H173.903V64.3767C175.806 65.866 177.957 66.9417 180.357 67.6037C183.584 68.5139 186.811 68.9276 189.955 68.9276C192.354 68.9276 194.837 68.6793 197.319 68.2656C199.801 67.7692 202.035 67.0245 204.021 65.866C206.007 64.7076 207.662 63.2182 208.903 61.3151C210.227 59.412 210.806 57.0124 210.806 54.0337C210.806 51.1376 210.227 48.9035 209.069 47.1659C207.91 45.4283 206.504 44.1044 204.683 43.1115C202.946 42.1185 201.043 41.3738 198.974 40.8774C196.905 40.3809 195.085 39.9672 193.347 39.5535C191.61 39.1398 190.12 38.6433 188.962 38.1468C187.803 37.6504 187.142 36.8229 187.224 35.6645C187.224 34.2579 187.804 33.3477 188.879 32.7685C189.955 32.1893 191.113 31.941 192.354 31.941C195.747 31.941 198.477 33.1822 200.546 35.7473L209.069 27.3074C209.565 27.8038 209.979 28.3003 210.393 28.7968L207.745 31.5273V33.5959H216.681L216.598 55.1921C216.598 57.6744 217.095 59.8257 217.922 61.5634C218.75 63.301 219.908 64.7076 221.398 65.7833C222.887 66.859 224.625 67.6864 226.61 68.1829C228.596 68.6793 230.83 68.9276 233.147 68.9276C234.802 68.9276 236.457 68.8448 238.112 68.6793C239.767 68.5138 241.422 68.1001 242.994 67.5209L242.911 55.854C242.332 56.4332 241.422 56.7642 240.263 56.9297Z" fill="white"/>
<path d="M174.897 9.76573C174.98 9.10378 174.98 8.69006 174.98 8.11086C174.98 5.87677 174.152 3.97366 172.663 2.40153C171.091 0.829392 169.188 0.00195312 166.953 0.00195312C165.795 0.00195312 164.802 0.250184 163.809 0.663904C162.816 1.07762 161.906 1.65683 161.161 2.40153C160.417 3.14622 159.838 3.97366 159.424 4.96659C159.01 5.95951 158.762 7.03518 158.762 8.11086C158.762 9.26927 159.01 10.2622 159.424 11.2551C159.838 12.2481 160.417 13.0755 161.161 13.8202C161.906 14.5649 162.734 15.1441 163.726 15.5578C164.471 15.8888 165.216 16.0543 165.961 16.137C164.637 17.5437 162.734 18.7848 159.838 19.1158V20.8534C159.838 20.7707 173.573 22.0118 174.897 9.76573Z" fill="white"/>
<path d="M259.626 30.9469H267.239C269.308 30.9469 270.797 31.5261 271.79 32.6018C272.783 33.7602 273.362 35.2496 273.362 37.07C273.362 38.8903 272.865 40.297 271.873 41.4554C270.88 42.5311 269.39 43.1103 267.322 43.1103H259.709V30.9469H259.626ZM267.239 22.3416H249.945V67.8507H259.626V51.7156H267.239C272.038 51.7156 275.927 50.3917 278.74 47.6612C281.554 45.0134 282.96 41.3727 282.96 36.9872C282.96 32.6018 281.554 29.0438 278.74 26.396C275.927 23.7482 272.038 22.3416 267.239 22.3416Z" fill="white"/>
<path d="M309.52 52.3776C309.52 54.9427 308.858 56.8458 307.534 58.0042C306.127 59.2453 304.307 59.9073 301.825 59.9073C299.508 59.9073 297.687 59.3281 296.364 58.0042C295.04 56.763 294.46 54.9427 294.46 52.2948V22.3416H284.779V52.3776C284.779 57.5077 286.352 61.4794 289.579 64.2927C292.723 67.0233 296.86 68.4299 301.825 68.4299C306.872 68.4299 311.092 67.0233 314.236 64.2927C317.463 61.4794 319.118 57.425 319.118 52.2948V22.3416H309.437V52.3776H309.52Z" fill="white"/>
<path d="M366.613 40.7128C363.469 39.8026 361.235 38.8924 359.911 37.8995C358.835 37.072 358.339 36.1618 358.339 35.0034C358.339 33.6795 358.835 32.6039 359.828 31.6937C360.904 30.7835 362.476 30.3698 364.545 30.3698C366.779 30.3698 368.434 30.949 369.592 32.0246C370.751 33.1003 371.247 34.507 371.247 36.3273V37.734H380.597C380.597 37.3203 380.68 36.1618 380.68 36.1618C380.763 32.1901 379.356 28.7976 376.294 25.9843C373.316 23.171 369.427 21.7644 364.628 21.7644C360.077 21.7644 356.188 23.0056 353.292 25.4051C350.23 27.8875 348.741 31.1145 348.741 35.0034C348.741 38.8096 350.147 41.8712 352.878 44.188C355.443 46.3393 359.166 48.1597 363.883 49.4009C366.862 50.2283 368.847 51.1385 369.923 52.1314C370.833 52.9589 371.33 54.0345 371.33 55.4412C371.33 56.7651 370.833 57.8407 369.84 58.5854C368.682 59.4129 367.027 59.9093 364.876 59.9093C362.476 59.9093 360.573 59.3301 359.084 58.2545C357.76 57.2615 357.098 55.6894 357.098 53.6208V52.2142H347.748L347.665 53.7863C347.582 58.3372 349.32 62.0607 352.878 64.7085C356.27 67.2736 360.325 68.5147 364.876 68.5147C369.592 68.5147 373.481 67.3563 376.377 65.0395C379.439 62.6399 381.011 59.4129 381.011 55.4412C381.011 51.7177 379.687 48.5734 377.205 46.0911C374.722 43.7743 371.164 41.9539 366.613 40.7128Z" fill="white"/>
<path d="M351.636 65.9476C349.236 64.1272 347.581 61.8931 346.754 59.2453H334.011V22.3416H324.33V67.8507H354.697C353.622 67.3542 352.629 66.6923 351.636 65.9476Z" fill="white"/>
<path d="M393.339 59.3281V48.7369H411.047V40.1315H393.339V30.9469H413.694V22.3416H383.658V67.9334H413.86V59.3281H393.339Z" fill="white"/>
</svg>

<svg width="414" height="93" fill="none" xmlns="http://www.w3.org/2000/svg"><path d="M33.9 25.653a6.67 6.67 0 01-2.4 2.4 10.54 10.54 0 01-3.31 1.24c-1.24.249-2.481.414-3.805.414h-9.681l-.083-15.72h7.447c1.406 0 2.813.082 4.303.247 1.489.166 2.813.497 4.054 1.076 1.241.58 2.234 1.324 3.061 2.4.828 1.075 1.159 2.4 1.159 4.054.165 1.572-.166 2.813-.745 3.889zm15.97-3.889c0-3.889-.662-7.199-1.986-9.764-1.324-2.565-3.144-4.633-5.461-6.206-2.234-1.489-4.965-2.565-7.944-3.227-3.061-.662-6.288-.91-9.68-.91H.14l.082 66.195h14.563l-.082-25.816h10.674c3.475 0 6.702-.33 9.763-.993 2.98-.662 5.544-1.737 7.778-3.31 2.152-1.572 3.89-3.64 5.13-6.288 1.159-2.565 1.82-5.792 1.82-9.681z" fill="#fff"/><path d="M87.6 54.696c-.58 1.075-1.407 1.903-2.4 2.647-.993.662-2.152 1.241-3.393 1.572-1.324.414-2.648.58-3.972.58-.744 0-1.489-.083-2.316-.249-.828-.165-1.49-.496-2.152-.91-.579-.413-1.158-.91-1.49-1.572-.413-.58-.578-1.324-.578-2.234 0-1.572.496-2.813 1.489-3.64.993-.91 2.317-1.49 3.724-1.987 1.489-.413 2.978-.661 4.55-.827 1.573-.083 2.897-.166 3.972-.166h3.475l.083 2.98c-.083 1.489-.414 2.73-.993 3.806zm13.735-9.02L91.571 23.17c-.248-.165-.58-.248-.828-.414-2.647-.993-6.04-1.572-10.177-1.572-3.724 0-7.364.58-10.84 1.82-3.475 1.242-6.536 3.062-9.101 5.462l7.447 7.695a18.207 18.207 0 015.13-3.972c1.903-.993 3.972-1.407 6.288-1.407 2.4 0 4.551.745 6.289 2.235 1.737 1.489 2.648 3.475 2.73 5.957-2.896 0-6.205.083-9.763.248-3.558.166-6.868.828-10.012 1.82-3.145.994-5.71 2.649-7.861 4.8-.497.496-.993 1.076-1.324 1.738V2.319H45.483v3.227c1.737 1.489 3.227 3.392 4.468 5.626 1.49 2.896 2.234 6.454 2.234 10.84 0 4.302-.745 7.86-2.069 10.756-1.158 2.4-2.648 4.386-4.55 5.958v29.209h13.983v-5.958c.827 1.324 1.82 2.565 3.062 3.558a15.505 15.505 0 005.212 2.648c1.986.579 3.972.91 6.123.91 2.897 0 5.627-.496 8.192-1.572 2.565-1.076 4.634-2.814 6.206-5.213h.165l.083 5.71H101.5l-.165-22.342z" fill="#fff"/><path d="M140.642 2.319v17.955h5.296l-.91 2.234h-14.315l-10.012 30.036h-.165l-11.667-30.036H93.727l19.858 45.84-.993 2.648c-.496 1.241-2.068 4.551-2.482 5.544a8.27 8.27 0 01-1.655 2.4c-.662.661-1.489 1.158-2.482 1.489-.993.33-2.317.496-3.889.496-2.234 0-4.386-.496-6.454-1.406L93.81 91.02c3.31 1.159 6.784 1.655 10.425 1.655 3.393 0 6.04-.331 8.109-.993 2.069-.662 3.724-1.655 5.13-2.896a14.208 14.208 0 003.31-4.716 144.928 144.928 0 002.648-6.454l17.21-43.772v34.09h13.984V2.401h-13.984V2.32zm50.14 48.571c1.738.413 3.227.91 4.386 1.489 1.158.579 1.737 1.49 1.737 2.648 0 1.24-.662 2.068-1.986 2.565-1.323.496-2.73.662-4.385.662-2.151 0-3.972-.414-5.544-1.242-1.572-.827-3.061-2.068-4.385-3.723l-8.44 9.515-1.489-1.489 3.227-3.64V41.29c.248.828.579 1.572 1.075 2.151 1.159 1.738 2.648 3.062 4.468 3.972 1.821.91 3.724 1.655 5.71 2.069 1.986.579 3.889.993 5.626 1.406zm49.481 6.04c-1.158.165-2.151.248-2.896.248-1.489 0-2.73-.166-3.558-.58-.91-.413-1.572-.992-1.986-1.737a8.36 8.36 0 01-.91-2.648c-.165-.993-.248-2.151-.165-3.392V33.679h12.328V22.425h-12.328V8.938h-13.984v13.487h-8.936v3.558c-1.821-1.572-3.972-2.647-6.372-3.392a31.468 31.468 0 00-9.102-1.324 27.6 27.6 0 00-6.95.91c-2.317.58-4.303 1.49-6.123 2.73-1.82 1.242-3.227 2.814-4.303 4.8-.414.745-.744 1.49-.993 2.317v-9.599h-14.149v45.427h14.067v-3.475c1.903 1.489 4.054 2.565 6.454 3.227a35.304 35.304 0 009.598 1.324c2.399 0 4.882-.249 7.364-.662 2.482-.497 4.716-1.242 6.702-2.4 1.986-1.158 3.641-2.648 4.882-4.55 1.324-1.904 1.903-4.304 1.903-7.282 0-2.896-.579-5.13-1.737-6.868-1.159-1.738-2.565-3.062-4.386-4.054-1.737-.994-3.64-1.738-5.709-2.235-2.069-.496-3.889-.91-5.627-1.324-1.737-.413-3.227-.91-4.385-1.406-1.159-.497-1.82-1.324-1.738-2.483 0-1.406.58-2.316 1.655-2.895 1.076-.58 2.234-.828 3.475-.828 3.393 0 6.123 1.241 8.192 3.806l8.523-8.44c.496.497.91.993 1.324 1.49l-2.648 2.73v2.069h8.936l-.083 21.596c0 2.482.497 4.634 1.324 6.371.828 1.738 1.986 3.145 3.476 4.22a15.087 15.087 0 005.212 2.4c1.986.496 4.22.745 6.537.745 1.655 0 3.31-.083 4.965-.249 1.655-.165 3.31-.579 4.882-1.158l-.083-11.667c-.579.58-1.489.91-2.648 1.076z" fill="#fff"/><path d="M174.897 9.766c.083-.662.083-1.076.083-1.655 0-2.234-.828-4.137-2.317-5.71-1.572-1.572-3.475-2.399-5.71-2.399-1.158 0-2.151.248-3.144.662-.993.414-1.903.993-2.648 1.738a7.833 7.833 0 00-1.737 2.565c-.414.993-.662 2.068-.662 3.144 0 1.158.248 2.151.662 3.144.414.993.993 1.82 1.737 2.565a7.832 7.832 0 002.565 1.738c.745.33 1.49.496 2.235.579-1.324 1.407-3.227 2.648-6.123 2.979v1.737c0-.082 13.735 1.159 15.059-11.087zm84.729 21.181h7.613c2.069 0 3.558.58 4.551 1.655.993 1.158 1.572 2.648 1.572 4.468 0 1.82-.497 3.227-1.489 4.385-.993 1.076-2.483 1.655-4.551 1.655h-7.613V30.947h-.083zm7.613-8.605h-17.294V67.85h9.681V51.716h7.613c4.799 0 8.688-1.324 11.501-4.055 2.814-2.648 4.22-6.288 4.22-10.674 0-4.385-1.406-7.943-4.22-10.591-2.813-2.648-6.702-4.054-11.501-4.054zm42.281 30.036c0 2.565-.662 4.468-1.986 5.626-1.407 1.241-3.227 1.903-5.709 1.903-2.317 0-4.138-.579-5.461-1.903-1.324-1.241-1.904-3.061-1.904-5.71V22.343h-9.681v30.036c0 5.13 1.573 9.101 4.8 11.915 3.144 2.73 7.281 4.137 12.246 4.137 5.047 0 9.267-1.407 12.411-4.137 3.227-2.814 4.882-6.868 4.882-11.998V22.342h-9.681v30.036h.083zm57.093-11.665c-3.144-.91-5.378-1.82-6.702-2.813-1.076-.828-1.572-1.738-1.572-2.897 0-1.324.496-2.4 1.489-3.31 1.076-.91 2.648-1.323 4.717-1.323 2.234 0 3.889.579 5.047 1.655 1.159 1.075 1.655 2.482 1.655 4.302v1.407h9.35c0-.414.083-1.572.083-1.572.083-3.972-1.324-7.364-4.386-10.178-2.978-2.813-6.867-4.22-11.666-4.22-4.551 0-8.44 1.242-11.336 3.641-3.062 2.482-4.551 5.71-4.551 9.598 0 3.807 1.406 6.868 4.137 9.185 2.565 2.151 6.288 3.972 11.005 5.213 2.979.827 4.964 1.737 6.04 2.73.91.828 1.407 1.904 1.407 3.31 0 1.324-.497 2.4-1.49 3.144-1.158.828-2.813 1.324-4.964 1.324-2.4 0-4.303-.579-5.792-1.654-1.324-.994-1.986-2.566-1.986-4.634v-1.407h-9.35l-.083 1.572c-.083 4.551 1.655 8.275 5.213 10.922 3.392 2.566 7.447 3.807 11.998 3.807 4.716 0 8.605-1.159 11.501-3.475 3.062-2.4 4.634-5.627 4.634-9.599 0-3.723-1.324-6.868-3.806-9.35-2.483-2.317-6.041-4.137-10.592-5.378z" fill="#fff"/><path d="M351.636 65.948c-2.4-1.82-4.055-4.055-4.882-6.703h-12.743V22.342h-9.681V67.85h30.367c-1.075-.497-2.068-1.159-3.061-1.903zm41.703-6.62V48.737h17.708v-8.605h-17.708v-9.185h20.355v-8.605h-30.036v45.591h30.202v-8.605h-20.521z" fill="#fff"/></svg>
